#include "D:/Work/materialx/bernard_MaterialX_3/build/bin/libraries/stdlib/genosl/include/mx_funcs.h"

#define true 1
#define false 0
struct textureresource { string filename; string colorspace; };
#define BSDF closure color
#define EDF closure color
#define VDF closure color
struct surfaceshader { closure color bsdf; closure color edf; float opacity; };
#define volumeshader closure color
#define displacementshader vector
#define lightshader closure color
#define MATERIAL closure color

#define M_FLOAT_EPS 1e-8

vector2 mx_transform_uv(vector2 texcoord)
{
    return texcoord;
}

void mx_image_color3(textureresource file, string layer, color default_value, vector2 texcoord, string uaddressmode, string vaddressmode, string filtertype, string framerange, int frameoffset, string frameendaction, output color out)
{
    if (file.filename == "" ||
        (uaddressmode == "constant" && (texcoord.x<0.0 || texcoord.x>1.0)) ||
        (vaddressmode == "constant" && (texcoord.y<0.0 || texcoord.y>1.0)))
    {
        out = default_value;
        return;
    }

    color missingColor = default_value;
    vector2 st = mx_transform_uv(texcoord);
    out = texture(file.filename, st.x, st.y,
                  "subimage", layer, "interp", filtertype,
                  "missingcolor", missingColor,
                  "swrap", uaddressmode, "twrap", vaddressmode,
                  "colorspace", file.colorspace);
}

void NG_g18_rec709_to_lin_rec709_color3(color in, output color out)
{
    float max_in2_tmp = 0.000000;
    color max_out = max(in, max_in2_tmp);
    float gamma_in2_tmp = 1.800000;
    color gamma_out = pow(max_out, gamma_in2_tmp);
    out = gamma_out;
}

void mx_roughness_anisotropy(float roughness, float anisotropy, output vector2 result)
{
    float roughness_sqr = clamp(roughness*roughness, M_FLOAT_EPS, 1.0);
    if (anisotropy > 0.0)
    {
        float aspect = sqrt(1.0 - clamp(anisotropy, 0.0, 0.98));
        result.x = min(roughness_sqr / aspect, 1.0);
        result.y = roughness_sqr * aspect;
    }
    else
    {
        result.x = roughness_sqr;
        result.y = roughness_sqr;
    }
}

void mx_luminance_color3(color in, color lumacoeffs, output color result)
{
    result = dot(in, lumacoeffs);
}

matrix rotationMatrix(vector axis, float angle)
{
    vector nAxis = normalize(axis);
    float s = sin(angle);
    float c = cos(angle);
    float oc = 1.0 - c;

    return matrix(oc * nAxis[0] * nAxis[0] + c,             oc * nAxis[0] * nAxis[1] - nAxis[2] * s,  oc * nAxis[2] * nAxis[0] + nAxis[1] * s,  0.0,
                  oc * nAxis[0] * nAxis[1] + nAxis[2] * s,  oc * nAxis[1] * nAxis[1] + c,             oc * nAxis[1] * nAxis[2] - nAxis[0] * s,  0.0,
                  oc * nAxis[2] * nAxis[0] - nAxis[1] * s,  oc * nAxis[1] * nAxis[2] + nAxis[0] * s,  oc * nAxis[2] * nAxis[2] + c,             0.0,
                  0.0,                                      0.0,                                      0.0,                                      1.0);
}

void mx_rotate_vector3(vector _in, float amount, vector axis, output vector result)
{
    float rotationRadians = radians(amount);
    matrix m = rotationMatrix(axis, rotationRadians);
    vector4 trans = transform(m, vector4(_in[0], _in[1], _in[2], 1.0));
    result = vector(trans.x, trans.y, trans.z);
}

void mx_artistic_ior(color reflectivity, color edge_color, output vector ior, output vector extinction)
{
    // "Artist Friendly Metallic Fresnel", Ole Gulbrandsen, 2014
    // http://jcgt.org/published/0003/04/03/paper.pdf

    color r = clamp(reflectivity, 0.0, 0.99);
    color r_sqrt = sqrt(r);
    color n_min = (1.0 - r) / (1.0 + r);
    color n_max = (1.0 + r_sqrt) / (1.0 - r_sqrt);
    ior = mix(n_max, n_min, edge_color);

    color np1 = ior + 1.0;
    color nm1 = ior - 1.0;
    color k2 = (np1*np1 * r - nm1*nm1) / (1.0 - r);
    k2 = max(k2, 0.0);
    extinction = sqrt(k2);
}

void mx_dielectric_bsdf(float weight, color tint, float ior, vector2 roughness, float thinfilm_thickness, float thinfilm_ior, normal N, vector U, string distribution, string scatter_mode, output BSDF bsdf)
{
    color reflection_tint = (scatter_mode == "T") ? color(0.0) : tint;
    color transmission_tint = (scatter_mode == "R") ? color(0.0) : tint;
    bsdf = weight * dielectric_bsdf(N, U, reflection_tint, transmission_tint, roughness.x, roughness.y, ior, distribution, "thinfilm_thickness", thinfilm_thickness, "thinfilm_ior", thinfilm_ior);
}

void mx_subsurface_bsdf(float weight, color albedo, color radius, float anisotropy, normal N, output BSDF bsdf)
{
#if OSL_VERSION_MAJOR >= 1 && OSL_VERSION_MINOR >= 14
    bsdf = subsurface_bssrdf(N, weight * albedo, radius, anisotropy);
#else
    bsdf = subsurface_bssrdf(N, weight * albedo, 1.0, radius, anisotropy);
#endif
}

void NG_convert_float_color3(float in, output color out)
{
    color combine_out = color( in,in,in );
    out = combine_out;
}

float mx_square(float x)
{
    return x*x;
}

vector2 mx_square(vector2 x)
{
    return x*x;
}

vector mx_square(vector x)
{
    return x*x;
}

vector4 mx_square(vector4 x)
{
    return x*x;
}

float mx_pow5(float x)
{
    return mx_square(mx_square(x)) * x;
}

color mx_fresnel_conductor(float cosTheta, vector n, vector k)
{
   float c2 = cosTheta*cosTheta;
   vector n2_k2 = n*n + k*k;
   vector nc2 = 2.0 * n * cosTheta;

   vector rs_a = n2_k2 + c2;
   vector rp_a = n2_k2 * c2 + 1.0;
   vector rs = (rs_a - nc2) / (rs_a + nc2);
   vector rp = (rp_a - nc2) / (rp_a + nc2);

   return 0.5 * (rs + rp);
}

// Standard Schlick Fresnel
float mx_fresnel_schlick(float cosTheta, float F0)
{
    float x = clamp(1.0 - cosTheta, 0.0, 1.0);
    float x5 = mx_pow5(x);
    return F0 + (1.0 - F0) * x5;
}
color mx_fresnel_schlick(float cosTheta, color F0)
{
    float x = clamp(1.0 - cosTheta, 0.0, 1.0);
    float x5 = mx_pow5(x);
    return F0 + (1.0 - F0) * x5;
}

// Generalized Schlick Fresnel
float mx_fresnel_schlick(float cosTheta, float F0, float F90)
{
    float x = clamp(1.0 - cosTheta, 0.0, 1.0);
    float x5 = mx_pow5(x);
    return mix(F0, F90, x5);
}
color mx_fresnel_schlick(float cosTheta, color F0, color F90)
{
    float x = clamp(1.0 - cosTheta, 0.0, 1.0);
    float x5 = mx_pow5(x);
    return mix(F0, F90, x5);
}

// Generalized Schlick Fresnel with a variable exponent
color mx_fresnel_schlick(float cosTheta, float f0, float f90, float exponent)
{
    float x = clamp(1.0 - cosTheta, 0.0, 1.0);
    return mix(f0, f90, pow(x, exponent));
}
color mx_fresnel_schlick(float cosTheta, color f0, color f90, float exponent)
{
    float x = clamp(1.0 - cosTheta, 0.0, 1.0);
    return mix(f0, f90, pow(x, exponent));
}

void mx_generalized_schlick_edf(color color0, color color90, float exponent, EDF base, output EDF result)
{
    float NdotV = fabs(dot(N,-I));
    color f = mx_fresnel_schlick(NdotV, color0, color90, exponent);
    result = base * f;
}

void mx_surface(BSDF bsdf, EDF edf, float opacity, int thin_walled, output surfaceshader result)
{
    result.bsdf    = bsdf;
    result.edf     = edf;
    result.opacity = clamp(opacity, 0.0, 1.0);
}

void NG_standard_surface_surfaceshader_100(float base, color base_color, float diffuse_roughness, float metalness, float specular, color specular_color, float specular_roughness, float specular_IOR, float specular_anisotropy, float specular_rotation, float transmission, color transmission_color, float transmission_depth, color transmission_scatter, float transmission_scatter_anisotropy, float transmission_dispersion, float transmission_extra_roughness, float subsurface1, color subsurface_color, color subsurface_radius, float subsurface_scale, float subsurface_anisotropy, float sheen1, color sheen_color, float sheen_roughness, float coat, color coat_color, float coat_roughness, float coat_anisotropy, float coat_rotation, float coat_IOR, vector coat_normal, float coat_affect_color, float coat_affect_roughness, float thin_film_thickness, float thin_film_IOR, float emission1, color emission_color, color opacity, int thin_walled, vector normal1, vector tangent, output surfaceshader out)
{
    closure color null_closure = 0;
    vector2 coat_roughness_vector_out = vector2(0.0, 0.0);
    mx_roughness_anisotropy(coat_roughness, coat_anisotropy, coat_roughness_vector_out);
    float coat_tangent_rotate_degree_in2_tmp = 360.000000;
    float coat_tangent_rotate_degree_out = coat_rotation * coat_tangent_rotate_degree_in2_tmp;
    color metal_reflectivity_out = base_color * base;
    color metal_edgecolor_out = specular_color * specular;
    float coat_affect_roughness_multiply1_out = coat_affect_roughness * coat;
    float tangent_rotate_degree_in2_tmp = 360.000000;
    float tangent_rotate_degree_out = specular_rotation * tangent_rotate_degree_in2_tmp;
    float transmission_roughness_add_out = specular_roughness + transmission_extra_roughness;
    float subsurface_color_nonnegative_in2_tmp = 0.000000;
    color subsurface_color_nonnegative_out = max(subsurface_color, subsurface_color_nonnegative_in2_tmp);
    float coat_clamped_low_tmp = 0.000000;
    float coat_clamped_high_tmp = 1.000000;
    float coat_clamped_out = clamp(coat, coat_clamped_low_tmp, coat_clamped_high_tmp);
    color subsurface_radius_scaled_out = subsurface_radius * subsurface_scale;
    float subsurface_selector_out = float(thin_walled);
    float base_color_nonnegative_in2_tmp = 0.000000;
    color base_color_nonnegative_out = max(base_color, base_color_nonnegative_in2_tmp);
    color coat_attenuation_bg_tmp = color(1.000000, 1.000000, 1.000000);
    color coat_attenuation_out = mix(coat_attenuation_bg_tmp, coat_color, coat);
    float one_minus_coat_ior_in1_tmp = 1.000000;
    float one_minus_coat_ior_out = one_minus_coat_ior_in1_tmp - coat_IOR;
    float one_plus_coat_ior_in1_tmp = 1.000000;
    float one_plus_coat_ior_out = one_plus_coat_ior_in1_tmp + coat_IOR;
    color emission_weight_out = emission_color * emission1;
    color opacity_luminance_out = color(0.0);
    mx_luminance_color3(opacity, color(0.272229, 0.674082, 0.053689), opacity_luminance_out);
    vector coat_tangent_rotate_out = vector(0.0);
    mx_rotate_vector3(tangent, coat_tangent_rotate_degree_out, coat_normal, coat_tangent_rotate_out);
    color artistic_ior_ior = color(0.0);
    color artistic_ior_extinction = color(0.0);
    mx_artistic_ior(metal_reflectivity_out, metal_edgecolor_out, artistic_ior_ior, artistic_ior_extinction);
    float coat_affect_roughness_multiply2_out = coat_affect_roughness_multiply1_out * coat_roughness;
    vector tangent_rotate_out = vector(0.0);
    mx_rotate_vector3(tangent, tangent_rotate_degree_out, normal1, tangent_rotate_out);
    float transmission_roughness_clamped_low_tmp = 0.000000;
    float transmission_roughness_clamped_high_tmp = 1.000000;
    float transmission_roughness_clamped_out = clamp(transmission_roughness_add_out, transmission_roughness_clamped_low_tmp, transmission_roughness_clamped_high_tmp);
    float coat_gamma_multiply_out = coat_clamped_out * coat_affect_color;
    float coat_ior_to_F0_sqrt_out = one_minus_coat_ior_out / one_plus_coat_ior_out;
    int opacity_luminance_float_index_tmp = 0;
    float opacity_luminance_float_out = mx_extract(opacity_luminance_out, opacity_luminance_float_index_tmp);
    vector coat_tangent_rotate_normalize_out = normalize(coat_tangent_rotate_out);
    float coat_affected_roughness_fg_tmp = 1.000000;
    float coat_affected_roughness_out = mix(specular_roughness, coat_affected_roughness_fg_tmp, coat_affect_roughness_multiply2_out);
    vector tangent_rotate_normalize_out = normalize(tangent_rotate_out);
    float coat_affected_transmission_roughness_fg_tmp = 1.000000;
    float coat_affected_transmission_roughness_out = mix(transmission_roughness_clamped_out, coat_affected_transmission_roughness_fg_tmp, coat_affect_roughness_multiply2_out);
    float coat_gamma_in2_tmp = 1.000000;
    float coat_gamma_out = coat_gamma_multiply_out + coat_gamma_in2_tmp;
    float coat_ior_to_F0_out = coat_ior_to_F0_sqrt_out * coat_ior_to_F0_sqrt_out;
    float coat_tangent_value2_tmp = 0.000000;
    vector coat_tangent_out = mx_ternary(coat_anisotropy > coat_tangent_value2_tmp, coat_tangent_rotate_normalize_out, tangent);
    vector2 main_roughness_out = vector2(0.0, 0.0);
    mx_roughness_anisotropy(coat_affected_roughness_out, specular_anisotropy, main_roughness_out);
    float main_tangent_value2_tmp = 0.000000;
    vector main_tangent_out = mx_ternary(specular_anisotropy > main_tangent_value2_tmp, tangent_rotate_normalize_out, tangent);
    vector2 transmission_roughness_out = vector2(0.0, 0.0);
    mx_roughness_anisotropy(coat_affected_transmission_roughness_out, specular_anisotropy, transmission_roughness_out);
    color coat_affected_subsurface_color_out = pow(subsurface_color_nonnegative_out, coat_gamma_out);
    color coat_affected_diffuse_color_out = pow(base_color_nonnegative_out, coat_gamma_out);
    float one_minus_coat_ior_to_F0_in1_tmp = 1.000000;
    float one_minus_coat_ior_to_F0_out = one_minus_coat_ior_to_F0_in1_tmp - coat_ior_to_F0_out;
    color emission_color0_out = color(0.0);
    NG_convert_float_color3(one_minus_coat_ior_to_F0_out, emission_color0_out);
    BSDF coat_bsdf_out = null_closure;
    mx_dielectric_bsdf(coat, color(1.000000, 1.000000, 1.000000), coat_IOR, coat_roughness_vector_out, 0.000000, 1.500000, coat_normal, coat_tangent_out, "ggx", "R", coat_bsdf_out);
    float metal_bsdf_weight_tmp = 1.000000;
    string metal_bsdf_distribution_tmp = "ggx";
    BSDF metal_bsdf_out = metal_bsdf_weight_tmp * conductor_bsdf(normal1, main_tangent_out, main_roughness_out.x, main_roughness_out.y, artistic_ior_ior, artistic_ior_extinction, metal_bsdf_distribution_tmp, "thinfilm_thickness", thin_film_thickness, "thinfilm_ior", thin_film_IOR);
    BSDF specular_bsdf_out = null_closure;
    mx_dielectric_bsdf(specular, specular_color, specular_IOR, main_roughness_out, thin_film_thickness, thin_film_IOR, normal1, main_tangent_out, "ggx", "R", specular_bsdf_out);
    BSDF transmission_bsdf_out = null_closure;
    mx_dielectric_bsdf(1.000000, transmission_color, specular_IOR, transmission_roughness_out, 0.000000, 1.500000, normal1, main_tangent_out, "ggx", "T", transmission_bsdf_out);
    BSDF sheen_bsdf_out = sheen1 * sheen_bsdf(normal1, sheen_color, sheen_roughness);
    float translucent_bsdf_weight_tmp = 1.000000;
    BSDF translucent_bsdf_out = translucent_bsdf_weight_tmp * translucent_bsdf(normal1, coat_affected_subsurface_color_out);
    BSDF subsurface_bsdf_out = null_closure;
    mx_subsurface_bsdf(1.000000, coat_affected_subsurface_color_out, subsurface_radius_scaled_out, subsurface_anisotropy, normal1, subsurface_bsdf_out);
    BSDF selected_subsurface_bsdf_out = mix(subsurface_bsdf_out, translucent_bsdf_out, subsurface_selector_out);
    BSDF diffuse_bsdf_out = base * oren_nayar_diffuse_bsdf(normal1, coat_affected_diffuse_color_out, diffuse_roughness);
    BSDF subsurface_mix_out = mix(diffuse_bsdf_out, selected_subsurface_bsdf_out, subsurface1);
    BSDF sheen_layer_out = layer(sheen_bsdf_out, subsurface_mix_out);
    BSDF transmission_mix_out = mix(sheen_layer_out, transmission_bsdf_out, transmission);
    BSDF specular_layer_out = layer(specular_bsdf_out, transmission_mix_out);
    BSDF metalness_mix_out = mix(specular_layer_out, metal_bsdf_out, metalness);
    BSDF thin_film_layer_attenuated_out = (coat_attenuation_out * metalness_mix_out);
    BSDF coat_layer_out = layer(coat_bsdf_out, thin_film_layer_attenuated_out);
    EDF emission_edf_out = uniform_edf(emission_weight_out);
    EDF coat_tinted_emission_edf_out = (coat_color * emission_edf_out);
    EDF coat_emission_edf_out = null_closure;
    mx_generalized_schlick_edf(emission_color0_out, color(0.000000, 0.000000, 0.000000), 5.000000, coat_tinted_emission_edf_out, coat_emission_edf_out);
    EDF blended_coat_emission_edf_out = mix(emission_edf_out, coat_emission_edf_out, coat);
    surfaceshader shader_constructor_out = surfaceshader(null_closure, null_closure, 1.0);
    mx_surface(coat_layer_out, blended_coat_emission_edf_out, opacity_luminance_float_out, 0, shader_constructor_out);
    out = shader_constructor_out;
}

surface ng1_image_gamma18_out
[[
    string mtlx_category = "output",
    string mtlx_name = "image_gamma18_out"
]]
(
    string geomprop_Nworld_space = "world",
    string geomprop_Tworld_space = "world",
    int geomprop_Tworld_index = 0
    [[
        string widget = "number"
    ]],
    int geomprop_UV0_index = 0
    [[
        string widget = "number"
    ]],
    string image_gamma18_file = "D:/Work/materialx/bernard_MaterialX_3/build/bin/resources/Images/grid.png"
    [[
        string label = "Filename",
        string widget = "filename"
    ]],
    string image_gamma18_file_colorspace = ""
    [[
        string widget = "colorspace"
    ]],
    string image_gamma18_layer = ""
    [[
        string label = "Layer"
    ]],
    color image_gamma18_default = color(0.000000, 0.000000, 0.000000)
    [[
        string label = "Default Color"
    ]],
    string image_gamma18_uaddressmode = "periodic"
    [[
        string label = "Address Mode U"
    ]],
    string image_gamma18_vaddressmode = "periodic"
    [[
        string label = "Address Mode V"
    ]],
    string image_gamma18_filtertype = "linear"
    [[
        string label = "Filter Type"
    ]],
    string image_gamma18_framerange = ""
    [[
        string label = "Frame Range"
    ]],
    int image_gamma18_frameoffset = 0
    [[
        string label = "Frame Offset",
        string widget = "number"
    ]],
    string image_gamma18_frameendaction = "constant"
    [[
        string label = "Frame End Action"
    ]],
    float image_gamma18_standard_surface2_base = 1.000000
    [[
        float min = 0.000000,
        float max = 1.000000,
        string label = "Base",
        string page = "Base",
        string help = "Multiplier on the intensity of the diffuse reflection.",
        string widget = "number"
    ]],
    float image_gamma18_standard_surface2_diffuse_roughness = 0.000000
    [[
        float min = 0.000000,
        float max = 1.000000,
        string label = "Diffuse Roughness",
        string page = "Base",
        int uiadvanced = 1,
        string help = "Roughness of the diffuse reflection. Higher values cause the surface to appear flatter and darker.",
        string widget = "number"
    ]],
    float image_gamma18_standard_surface2_metalness = 0.000000
    [[
        float min = 0.000000,
        float max = 1.000000,
        string label = "Metalness",
        string page = "Base",
        string help = "Specifies how metallic the material appears. At its maximum, the surface behaves like a metal, using fully specular reflection and complex fresnel.",
        string widget = "number"
    ]],
    float image_gamma18_standard_surface2_specular = 1.000000
    [[
        float min = 0.000000,
        float max = 1.000000,
        string label = "Specular",
        string page = "Specular",
        string help = "Multiplier on the intensity of the specular reflection.",
        string widget = "number"
    ]],
    color image_gamma18_standard_surface2_specular_color = color(1.000000, 1.000000, 1.000000)
    [[
        color min = color(0.000000, 0.000000, 0.000000),
        color max = color(1.000000, 1.000000, 1.000000),
        string label = "Specular Color",
        string page = "Specular",
        string help = "Color tint on the specular reflection."
    ]],
    float image_gamma18_standard_surface2_specular_roughness = 0.200000
    [[
        float min = 0.000000,
        float max = 1.000000,
        string label = "Specular Roughness",
        string page = "Specular",
        string help = "The roughness of the specular reflection. Lower numbers produce sharper reflections, higher numbers produce blurrier reflections.",
        string widget = "number"
    ]],
    float image_gamma18_standard_surface2_specular_IOR = 1.500000
    [[
        float min = 0.000000,
        float slidermin = 1.000000,
        float slidermax = 3.000000,
        string label = "Index of Refraction",
        string page = "Specular",
        string help = "Index of refraction for specular reflection.",
        string widget = "number"
    ]],
    float image_gamma18_standard_surface2_specular_anisotropy = 0.000000
    [[
        float min = 0.000000,
        float max = 1.000000,
        string label = "Specular Anisotropy",
        string page = "Specular",
        int uiadvanced = 1,
        string help = "The directional bias of reflected and transmitted light resulting in materials appearing rougher or glossier in certain directions.",
        string widget = "number"
    ]],
    float image_gamma18_standard_surface2_specular_rotation = 0.000000
    [[
        float min = 0.000000,
        float max = 1.000000,
        string label = "Specular Rotation",
        string page = "Specular",
        int uiadvanced = 1,
        string help = "Rotation of the axis of specular anisotropy around the surface normal.",
        string widget = "number"
    ]],
    float image_gamma18_standard_surface2_transmission = 0.000000
    [[
        float min = 0.000000,
        float max = 1.000000,
        string label = "Transmission",
        string page = "Transmission",
        int uiadvanced = 1,
        string help = "Transmission of light through the surface for materials such as glass or water. The greater the value the more transparent the material.",
        string widget = "number"
    ]],
    color image_gamma18_standard_surface2_transmission_color = color(1.000000, 1.000000, 1.000000)
    [[
        color min = color(0.000000, 0.000000, 0.000000),
        color max = color(1.000000, 1.000000, 1.000000),
        string label = "Transmission Color",
        string page = "Transmission",
        int uiadvanced = 1,
        string help = "Color tint on the transmitted light."
    ]],
    float image_gamma18_standard_surface2_transmission_depth = 0.000000
    [[
        float min = 0.000000,
        float slidermax = 100.000000,
        string label = "Transmission Depth",
        string page = "Transmission",
        int uiadvanced = 1,
        string help = "Specifies the distance light travels inside the material before its becomes exactly the transmission color according to Beer's law.",
        string widget = "number"
    ]],
    color image_gamma18_standard_surface2_transmission_scatter = color(0.000000, 0.000000, 0.000000)
    [[
        color min = color(0.000000, 0.000000, 0.000000),
        color max = color(1.000000, 1.000000, 1.000000),
        string label = "Transmission Scatter",
        string page = "Transmission",
        int uiadvanced = 1,
        string help = "Scattering coefficient of the interior medium. Suitable for a large body of liquid or one that is fairly thick, such as an ocean, honey, ice, or frosted glass."
    ]],
    float image_gamma18_standard_surface2_transmission_scatter_anisotropy = 0.000000
    [[
        float min = 0.000000,
        float max = 1.000000,
        string label = "Transmission Anisotropy",
        string page = "Transmission",
        int uiadvanced = 1,
        string help = "The amount of directional bias, or anisotropy, of the scattering.",
        string widget = "number"
    ]],
    float image_gamma18_standard_surface2_transmission_dispersion = 0.000000
    [[
        float min = 0.000000,
        float slidermax = 100.000000,
        string label = "Transmission Dispersion",
        string page = "Transmission",
        int uiadvanced = 1,
        string help = "Dispersion amount, describing how much the index of refraction varies across wavelengths.",
        string widget = "number"
    ]],
    float image_gamma18_standard_surface2_transmission_extra_roughness = 0.000000
    [[
        float min = -1.000000,
        float slidermin = 0.000000,
        float max = 1.000000,
        string label = "Transmission Roughness",
        string page = "Transmission",
        int uiadvanced = 1,
        string help = "Additional roughness on top of specular roughness. Positive values blur refractions more than reflections, and negative values blur refractions less.",
        string widget = "number"
    ]],
    float image_gamma18_standard_surface2_subsurface = 0.000000
    [[
        float min = 0.000000,
        float max = 1.000000,
        string label = "Subsurface",
        string page = "Subsurface",
        int uiadvanced = 1,
        string help = "The blend between diffuse reflection and subsurface scattering. A value of 1.0 indicates full subsurface scattering and a value 0 for diffuse reflection only.",
        string widget = "number"
    ]],
    color image_gamma18_standard_surface2_subsurface_color = color(1.000000, 1.000000, 1.000000)
    [[
        color min = color(0.000000, 0.000000, 0.000000),
        color max = color(1.000000, 1.000000, 1.000000),
        string label = "Subsurface Color",
        string page = "Subsurface",
        int uiadvanced = 1,
        string help = "The color of the subsurface scattering effect."
    ]],
    color image_gamma18_standard_surface2_subsurface_radius = color(1.000000, 1.000000, 1.000000)
    [[
        color min = color(0.000000, 0.000000, 0.000000),
        color max = color(1.000000, 1.000000, 1.000000),
        string label = "Subsurface Radius",
        string page = "Subsurface",
        int uiadvanced = 1,
        string help = "The mean free path. The distance which light can travel before being scattered inside the surface."
    ]],
    float image_gamma18_standard_surface2_subsurface_scale = 1.000000
    [[
        float min = 0.000000,
        float slidermax = 10.000000,
        string label = "Subsurface Scale",
        string page = "Subsurface",
        int uiadvanced = 1,
        string help = "Scalar weight for the subsurface radius value.",
        string widget = "number"
    ]],
    float image_gamma18_standard_surface2_subsurface_anisotropy = 0.000000
    [[
        float min = -1.000000,
        float max = 1.000000,
        string label = "Subsurface Anisotropy",
        string page = "Subsurface",
        int uiadvanced = 1,
        string help = "The direction of subsurface scattering. 0 scatters light evenly, positive values scatter forward and negative values scatter backward.",
        string widget = "number"
    ]],
    float image_gamma18_standard_surface2_sheen = 0.000000
    [[
        float min = 0.000000,
        float max = 1.000000,
        string label = "Sheen",
        string page = "Sheen",
        int uiadvanced = 1,
        string help = "The weight of a sheen layer that can be used to approximate microfibers or fabrics such as velvet and satin.",
        string widget = "number"
    ]],
    color image_gamma18_standard_surface2_sheen_color = color(1.000000, 1.000000, 1.000000)
    [[
        color min = color(0.000000, 0.000000, 0.000000),
        color max = color(1.000000, 1.000000, 1.000000),
        string label = "Sheen Color",
        string page = "Sheen",
        int uiadvanced = 1,
        string help = "The color of the sheen layer."
    ]],
    float image_gamma18_standard_surface2_sheen_roughness = 0.300000
    [[
        float min = 0.000000,
        float max = 1.000000,
        string label = "Sheen Roughness",
        string page = "Sheen",
        int uiadvanced = 1,
        string help = "The roughness of the sheen layer.",
        string widget = "number"
    ]],
    float image_gamma18_standard_surface2_coat = 0.000000
    [[
        float min = 0.000000,
        float max = 1.000000,
        string label = "Coat",
        string page = "Coat",
        string help = "The weight of a reflective clear-coat layer on top of the material. Use for materials such as car paint or an oily layer.",
        string widget = "number"
    ]],
    color image_gamma18_standard_surface2_coat_color = color(1.000000, 1.000000, 1.000000)
    [[
        color min = color(0.000000, 0.000000, 0.000000),
        color max = color(1.000000, 1.000000, 1.000000),
        string label = "Coat Color",
        string page = "Coat",
        string help = "The color of the clear-coat layer's transparency."
    ]],
    float image_gamma18_standard_surface2_coat_roughness = 0.100000
    [[
        float min = 0.000000,
        float max = 1.000000,
        string label = "Coat Roughness",
        string page = "Coat",
        string help = "The roughness of the clear-coat reflections. The lower the value, the sharper the reflection.",
        string widget = "number"
    ]],
    float image_gamma18_standard_surface2_coat_anisotropy = 0.000000
    [[
        float min = 0.000000,
        float max = 1.000000,
        string label = "Coat Anisotropy",
        string page = "Coat",
        int uiadvanced = 1,
        string help = "The amount of directional bias, or anisotropy, of the clear-coat layer.",
        string widget = "number"
    ]],
    float image_gamma18_standard_surface2_coat_rotation = 0.000000
    [[
        float min = 0.000000,
        float max = 1.000000,
        string label = "Coat Rotation",
        string page = "Coat",
        int uiadvanced = 1,
        string help = "The rotation of the anisotropic effect of the clear-coat layer.",
        string widget = "number"
    ]],
    float image_gamma18_standard_surface2_coat_IOR = 1.500000
    [[
        float min = 0.000000,
        float slidermin = 1.000000,
        float slidermax = 3.000000,
        string label = "Coat Index of Refraction",
        string page = "Coat",
        string help = "The index of refraction of the clear-coat layer.",
        string widget = "number"
    ]],
    float image_gamma18_standard_surface2_coat_affect_color = 0.000000
    [[
        float min = 0.000000,
        float max = 1.000000,
        string label = "Coat Affect Color",
        string page = "Coat",
        int uiadvanced = 1,
        string help = "Controls the saturation of diffuse reflection and subsurface scattering below the clear-coat.",
        string widget = "number"
    ]],
    float image_gamma18_standard_surface2_coat_affect_roughness = 0.000000
    [[
        float min = 0.000000,
        float max = 1.000000,
        string label = "Coat Affect Roughness",
        string page = "Coat",
        int uiadvanced = 1,
        string help = "Controls the roughness of the specular reflection in the layers below the clear-coat.",
        string widget = "number"
    ]],
    float image_gamma18_standard_surface2_thin_film_thickness = 0.000000
    [[
        float min = 0.000000,
        float slidermax = 2000.000000,
        string label = "Thin Film Thickness",
        string page = "Thin Film",
        int uiadvanced = 1,
        string help = "The thickness of the thin film layer on a surface. Use for materials such as multitone car paint or soap bubbles (in nanometers).",
        string widget = "number"
    ]],
    float image_gamma18_standard_surface2_thin_film_IOR = 1.500000
    [[
        float min = 0.000000,
        float slidermin = 1.000000,
        float slidermax = 3.000000,
        string label = "Thin Film Index of Refraction",
        string page = "Thin Film",
        int uiadvanced = 1,
        string help = "The index of refraction of the medium surrounding the material.",
        string widget = "number"
    ]],
    float image_gamma18_standard_surface2_emission = 0.000000
    [[
        float min = 0.000000,
        float slidermax = 1.000000,
        string label = "Emission",
        string page = "Emission",
        string help = "The amount of emitted incandescent light.",
        string widget = "number"
    ]],
    color image_gamma18_standard_surface2_emission_color = color(1.000000, 1.000000, 1.000000)
    [[
        color min = color(0.000000, 0.000000, 0.000000),
        color max = color(1.000000, 1.000000, 1.000000),
        string label = "Emission Color",
        string page = "Emission",
        string help = "The color of the emitted light."
    ]],
    color image_gamma18_standard_surface2_opacity = color(1.000000, 1.000000, 1.000000)
    [[
        color min = color(0.000000, 0.000000, 0.000000),
        color max = color(1.000000, 1.000000, 1.000000),
        string label = "Opacity",
        string page = "Geometry",
        string help = "The opacity of the entire material."
    ]],
    int image_gamma18_standard_surface2_thin_walled = 0
    [[
        string label = "Thin Walled",
        string page = "Geometry",
        int uiadvanced = 1,
        string help = "If true the surface is double-sided and represents an infinitely thin shell. Suitable for thin objects such as tree leaves or paper.",
        string widget = "checkBox"
    ]],
    output closure color image_gamma18_out = 0
)
{
    closure color null_closure = 0;
    textureresource image_gamma18_file_ = {image_gamma18_file, image_gamma18_file_colorspace};
    vector geomprop_Nworld_out1 = transform(geomprop_Nworld_space, N);
    vector geomprop_Tworld_out1 = normalize(vector(N[2], 0, -N[0]));
    vector2 geomprop_UV0_out1 = vector2(u,v);
    color image_gamma18_out1 = color(0.0);
    mx_image_color3(image_gamma18_file_, image_gamma18_layer, image_gamma18_default, geomprop_UV0_out1, image_gamma18_uaddressmode, image_gamma18_vaddressmode, image_gamma18_filtertype, image_gamma18_framerange, image_gamma18_frameoffset, image_gamma18_frameendaction, image_gamma18_out1);
    color image_gamma18_out_cm_out = color(0.0);
    NG_g18_rec709_to_lin_rec709_color3(image_gamma18_out1, image_gamma18_out_cm_out);
    surfaceshader image_gamma18_standard_surface2_out = surfaceshader(null_closure, null_closure, 1.0);
    NG_standard_surface_surfaceshader_100(image_gamma18_standard_surface2_base, image_gamma18_out_cm_out, image_gamma18_standard_surface2_diffuse_roughness, image_gamma18_standard_surface2_metalness, image_gamma18_standard_surface2_specular, image_gamma18_standard_surface2_specular_color, image_gamma18_standard_surface2_specular_roughness, image_gamma18_standard_surface2_specular_IOR, image_gamma18_standard_surface2_specular_anisotropy, image_gamma18_standard_surface2_specular_rotation, image_gamma18_standard_surface2_transmission, image_gamma18_standard_surface2_transmission_color, image_gamma18_standard_surface2_transmission_depth, image_gamma18_standard_surface2_transmission_scatter, image_gamma18_standard_surface2_transmission_scatter_anisotropy, image_gamma18_standard_surface2_transmission_dispersion, image_gamma18_standard_surface2_transmission_extra_roughness, image_gamma18_standard_surface2_subsurface, image_gamma18_standard_surface2_subsurface_color, image_gamma18_standard_surface2_subsurface_radius, image_gamma18_standard_surface2_subsurface_scale, image_gamma18_standard_surface2_subsurface_anisotropy, image_gamma18_standard_surface2_sheen, image_gamma18_standard_surface2_sheen_color, image_gamma18_standard_surface2_sheen_roughness, image_gamma18_standard_surface2_coat, image_gamma18_standard_surface2_coat_color, image_gamma18_standard_surface2_coat_roughness, image_gamma18_standard_surface2_coat_anisotropy, image_gamma18_standard_surface2_coat_rotation, image_gamma18_standard_surface2_coat_IOR, geomprop_Nworld_out1, image_gamma18_standard_surface2_coat_affect_color, image_gamma18_standard_surface2_coat_affect_roughness, image_gamma18_standard_surface2_thin_film_thickness, image_gamma18_standard_surface2_thin_film_IOR, image_gamma18_standard_surface2_emission, image_gamma18_standard_surface2_emission_color, image_gamma18_standard_surface2_opacity, image_gamma18_standard_surface2_thin_walled, geomprop_Nworld_out1, geomprop_Tworld_out1, image_gamma18_standard_surface2_out);
    {
        float opacity_weight = clamp(image_gamma18_standard_surface2_out.opacity, 0.0, 1.0);
        image_gamma18_out = (image_gamma18_standard_surface2_out.bsdf + image_gamma18_standard_surface2_out.edf) * opacity_weight + transparent() * (1.0 - opacity_weight);
    }
}

